material-icons/material-design-light/scalable/applications/mixcloud.svg

﻿<?xml version="1.0" encoding="utf-8"?>
<!DOCTYPE svg PUBLIC "-//W3C//DTD SVG 1.1//EN" "http://www.w3.org/Graphics/SVG/1.1/DTD/svg11.dtd">
<svg xmlns="http://www.w3.org/2000/svg" xmlns:xlink="http://www.w3.org/1999/xlink" version="1.1" baseProfile="full" width="24" height="24" viewBox="0 0 24.00 24.00" enable-background="new 0 0 24.00 24.00" xml:space="preserve">
	<path fill="#25292B" fill-opacity="1" stroke-linejoin="round" d="M 21.1122,18.4821C 20.9723,18.4821 20.831,18.4421 20.7059,18.3585C 20.3704,18.1334 20.2808,17.6787 20.5052,17.3432C 21.1804,16.3355 21.5377,15.1555 21.5377,13.9308C 21.5377,12.706 21.1804,11.526 20.5057,10.5185C 20.2808,10.183 20.3701,9.72858 20.7059,9.50355C 21.041,9.2786 21.4952,9.36841 21.7203,9.70367C 22.5577,10.953 23,12.4146 23,13.9308C 23,15.4466 22.5577,16.9084 21.7206,18.1578C 21.5792,18.3684 21.3482,18.4821 21.1122,18.4821 Z M 19.0202,17.2944C 18.8792,17.2944 18.7364,17.2536 18.6109,17.1683C 18.2764,16.9418 18.189,16.4869 18.4158,16.1521C 18.861,15.4948 19.0964,14.7267 19.0964,13.9308C 19.0964,13.1357 18.8609,12.3671 18.4155,11.7083C 18.189,11.374 18.2767,10.9189 18.6113,10.6926C 18.9459,10.4658 19.4004,10.5542 19.6266,10.8885C 20.2366,11.79 20.5592,12.8422 20.5592,13.9308C 20.5592,15.0204 20.2366,16.0724 19.6263,16.9732C 19.4849,17.1819 19.2548,17.2944 19.0202,17.2944 Z M 14.8968,15.7316C 15.8927,15.7316 16.7028,14.9236 16.7028,13.9308C 16.7028,13.1685 16.2244,12.5168 15.5517,12.2547C 15.5029,12.5535 15.4312,12.8479 15.3358,13.1354C 15.2341,13.4424 14.9485,13.6369 14.642,13.6369C 14.5656,13.6369 14.488,13.6248 14.4115,13.5994C 14.0281,13.4721 13.8206,13.0581 13.9478,12.6748C 14.092,12.2392 14.1653,11.7827 14.1653,11.317C 14.1653,8.92628 12.2171,6.98117 9.82231,6.98117C 8.10167,6.98117 6.56167,7.99875 5.86742,9.52484C 6.54101,9.69511 7.15976,10.0396 7.66285,10.5429C 7.94838,10.8288 7.94838,11.2917 7.66285,11.5774C 7.37693,11.8632 6.91407,11.8632 6.62838,11.5774C 6.16882,11.1172 5.55588,10.8641 4.90295,10.8641C 3.55726,10.8641 2.4626,11.9562 2.4626,13.2985C 2.4626,14.6403 3.55726,15.7316 4.90295,15.7316L 14.8968,15.7316 Z M 15.5995,10.7453C 17.0649,11.0673 18.1653,12.3723 18.1653,13.9308C 18.1653,15.7304 16.6991,17.1947 14.8968,17.1947L 4.90295,17.1947C 2.75088,17.1947 0.999999,15.4468 0.999999,13.2985C 0.999999,11.3443 2.44901,9.72614 4.32946,9.44769C 5.12343,7.11781 7.33018,5.51786 9.82231,5.51786C 12.8302,5.51786 15.3108,7.81505 15.5995,10.7453 Z "/>
</svg>

<?xml version="1.0" encoding="UTF-8" standalone="no"?>
<svg id="svg2" xmlns:rdf="http://www.w3.org/1999/02/22-rdf-syntax-ns#" xmlns="http://www.w3.org/2000/svg" xml:space="preserve" height="24" width="24" version="1.1" enable-background="new 0 0 24.00 24.00" xmlns:cc="http://creativecommons.org/ns#" xmlns:dc="http://purl.org/dc/elements/1.1/" viewBox="0 0 24.00 24.00"><metadata id="metadata10"><rdf:RDF><cc:Work rdf:about=""><dc:format>image/svg+xml</dc:format><dc:type rdf:resource="http://purl.org/dc/dcmitype/StillImage"/><dc:title/></cc:Work></rdf:RDF></metadata><path id="path4" stroke-linejoin="round" d="m21.112 18.482c-0.14 0-0.281-0.04-0.406-0.124-0.336-0.225-0.425-0.679-0.201-1.015 0.675-1.007 1.033-2.187 1.033-3.412s-0.358-2.405-1.032-3.413c-0.225-0.335-0.136-0.7894 0.2-1.0144 0.335-0.225 0.789-0.1352 1.014 0.2001 0.838 1.2493 1.28 2.7113 1.28 4.2273s-0.442 2.977-1.279 4.227c-0.142 0.21-0.373 0.324-0.609 0.324zm-2.092-1.188c-0.141 0-0.284-0.04-0.409-0.126-0.335-0.226-0.422-0.681-0.195-1.016 0.445-0.657 0.68-1.425 0.68-2.221 0-0.795-0.235-1.564-0.68-2.223-0.227-0.334-0.139-0.789 0.195-1.015 0.335-0.227 0.789-0.139 1.016 0.195 0.61 0.902 0.932 1.954 0.932 3.043s-0.322 2.141-0.933 3.042c-0.141 0.209-0.371 0.321-0.606 0.321zm-4.123-1.562c0.996 0 1.806-0.808 1.806-1.801 0-0.763-0.479-1.414-1.151-1.676-0.049 0.299-0.121 0.593-0.216 0.88-0.102 0.307-0.388 0.502-0.694 0.502-0.076 0-0.154-0.012-0.23-0.038-0.384-0.127-0.591-0.541-0.464-0.924 0.144-0.436 0.217-0.892 0.217-1.358 0-2.3907-1.948-4.3358-4.3427-4.3358-1.7206 0-3.2606 1.0176-3.9549 2.5436 0.6736 0.1703 1.2924 0.5152 1.7954 1.0182 0.2856 0.286 0.2856 0.749 0 1.034-0.2859 0.286-0.7487 0.286-1.0344 0-0.4596-0.46-1.0725-0.713-1.7254-0.713-1.3457 0-2.4404 1.092-2.4404 2.434s1.0947 2.434 2.4404 2.434h9.994zm0.703-4.987c1.465 0.322 2.565 1.627 2.565 3.186 0 1.799-1.466 3.264-3.268 3.264h-9.994c-2.1521 0-3.903-1.748-3.903-3.897 0-1.954 1.449-3.5719 3.3295-3.8503 0.7939-2.3299 3.0007-3.9298 5.4928-3.9298 3.0077 0 5.4887 2.2971 5.7777 5.2271z"/></svg>
